images/ic-Oversight-and-Event-Driven-Expertise.svg

<svg height="16" viewBox="0 0 22 16" width="22" xmlns="http://www.w3.org/2000/svg"><g fill="none"><path d="m11 2.5c-3.79 0-7.17 2.13-8.82 5.5 1.65 3.37 5.02 5.5 8.82 5.5s7.17-2.13 8.82-5.5c-1.65-3.37-5.03-5.5-8.82-5.5zm0 10c-2.48 0-4.5-2.02-4.5-4.5s2.02-4.5 4.5-4.5 4.5 2.02 4.5 4.5-2.02 4.5-4.5 4.5z" fill="#e0be41"/><path d="m11 .5c-5 0-9.27 3.11-11 7.5 1.73 4.39 6 7.5 11 7.5s9.27-3.11 11-7.5c-1.73-4.39-6-7.5-11-7.5zm0 13c-3.79 0-7.17-2.13-8.82-5.5 1.65-3.37 5.03-5.5 8.82-5.5s7.17 2.13 8.82 5.5c-1.65 3.37-5.03 5.5-8.82 5.5zm0-10c-2.48 0-4.5 2.02-4.5 4.5s2.02 4.5 4.5 4.5 4.5-2.02 4.5-4.5-2.02-4.5-4.5-4.5zm0 7c-1.38 0-2.5-1.12-2.5-2.5s1.12-2.5 2.5-2.5 2.5 1.12 2.5 2.5-1.12 2.5-2.5 2.5z" fill="#3e4241"/></g></svg>

<?xml version="1.0" encoding="UTF-8"?>
<svg width="22px" height="16px" viewBox="0 0 22 16" version="1.1" xmlns="http://www.w3.org/2000/svg" xmlns:xlink="http://www.w3.org/1999/xlink">
    <!-- Generator: Sketch 54.1 (76490) - https://sketchapp.com -->
    <title>ic-Oversight-and-Event-Driven-Expertise</title>
    <desc>Created with Sketch.</desc>
    <g id="Page-1" stroke="none" stroke-width="1" fill="none" fill-rule="evenodd">
        <g id="ic-Oversight-and-Event-Driven-Expertise" fill-rule="nonzero">
            <path d="M11,2.5 C7.21,2.5 3.83,4.63 2.18,8 C3.83,11.37 7.2,13.5 11,13.5 C14.8,13.5 18.17,11.37 19.82,8 C18.17,4.63 14.79,2.5 11,2.5 Z M11,12.5 C8.52,12.5 6.5,10.48 6.5,8 C6.5,5.52 8.52,3.5 11,3.5 C13.48,3.5 15.5,5.52 15.5,8 C15.5,10.48 13.48,12.5 11,12.5 Z" id="Shape" fill="#E0BE41"></path>
            <path d="M11,0.5 C6,0.5 1.73,3.61 0,8 C1.73,12.39 6,15.5 11,15.5 C16,15.5 20.27,12.39 22,8 C20.27,3.61 16,0.5 11,0.5 Z M11,13.5 C7.21,13.5 3.83,11.37 2.18,8 C3.83,4.63 7.21,2.5 11,2.5 C14.79,2.5 18.17,4.63 19.82,8 C18.17,11.37 14.79,13.5 11,13.5 Z M11,3.5 C8.52,3.5 6.5,5.52 6.5,8 C6.5,10.48 8.52,12.5 11,12.5 C13.48,12.5 15.5,10.48 15.5,8 C15.5,5.52 13.48,3.5 11,3.5 Z M11,10.5 C9.62,10.5 8.5,9.38 8.5,8 C8.5,6.62 9.62,5.5 11,5.5 C12.38,5.5 13.5,6.62 13.5,8 C13.5,9.38 12.38,10.5 11,10.5 Z" id="Shape" fill="#3E4241"></path>
        </g>
    </g>
</svg>
